src/lib/images/featured/cointelegraph.svg

<svg viewBox="0 0 600 141" fill="none" xmlns="http://www.w3.org/2000/svg">
<path d="M87.1 102.201L62.1 113.101V112.001C57.3 113.201 51.9 113.901 46.9 114.201C23.3 114.001 4.7 101.601 4.4 87.0005V81.6005C12.1 92.8005 27.9 100.401 46.9 100.101C53.3 100.401 59.9 99.4005 65.4 97.9005L67.6 92.5005C61.1 94.5005 53.9 95.8005 46.9 95.8005C23.3 95.8005 4.7 83.5005 4.4 68.6005V64.2005C12.1 74.6005 27.9 82.1005 46.9 81.6005C55.5 82.1005 63.8 80.3005 70.9 77.2005L72 71.8005C65.1 75.4005 56.2 77.5005 47 77.2005C23.4 77.5005 4.8 65.2005 4.5 50.0005V45.6005C12.2 56.2005 28 63.8005 47 64.1005C57.8 63.8005 68 60.9005 76.4 56.5005L77.5 50.0005C69.9 55.6005 58.8 59.3005 47 59.8005C23.4 59.3005 4.8 46.9005 4.5 31.5005C4.7 16.8005 23.4 4.50052 47 4.30052C61 4.50052 74.1 9.40053 81.8 17.4005L82.6 18.7005H88.1L87.3 17.4005C79.6 6.90053 64.1 0.000521315 47 0.000521315C20.8 -0.0994787 0 14.2005 0 31.4005V32.5005V88.0005C0.9 104.801 21.2 118.501 46.8 118.501C63.7 118.601 79 111.901 87.1 102.201Z" fill="white"/>
<path d="M76.9002 140.5L85.7002 103.1L60.4002 114.1L75.8002 49.3004H46.2002L53.9002 17.4004H148.4L140.7 49.3004H109.9L103.3 66.9004L137.4 52.6004L76.9002 140.5ZM92.3002 95.5004L87.9002 117.5L124.2 62.6004L94.5002 75.8004L107.7 45.0004H137.4L142.9 21.9004H57.1002L51.6002 45.0004H81.3002L67.0002 106.5L92.3002 95.5004Z" fill="#FABF2C"/>
<path d="M211.1 38.8008V38.9008C211.2 42.4008 210.1 45.1008 207.9 47.1008C205.7 49.1008 202.7 50.1008 198.8 50.1008C194.9 50.1008 191.7 48.8008 189.3 46.3008C186.9 43.8008 185.7 40.5008 185.7 36.5008V30.0008C185.7 26.0008 186.9 22.7008 189.2 20.2008C191.6 17.7008 194.7 16.4008 198.5 16.4008C202.5 16.4008 205.6 17.4008 207.9 19.3008C210.2 21.3008 211.3 24.0008 211.2 27.5008V27.6008H204.8C204.8 25.5008 204.3 23.9008 203.3 22.9008C202.3 21.9008 200.7 21.4008 198.6 21.4008C196.6 21.4008 195.1 22.2008 194 23.8008C192.9 25.4008 192.3 27.4008 192.3 29.9008V36.5008C192.3 39.0008 192.9 41.1008 194 42.7008C195.2 44.3008 196.8 45.1008 198.9 45.1008C200.9 45.1008 202.3 44.6008 203.3 43.6008C204.3 42.6008 204.8 41.0008 204.8 38.9008H211.1V38.8008ZM247.3 36.2008C247.3 40.2008 246 43.6008 243.5 46.2008C241 48.8008 237.7 50.1008 233.6 50.1008C229.5 50.1008 226.3 48.8008 223.7 46.2008C221.2 43.6008 219.9 40.2008 219.9 36.2008V30.3008C219.9 26.3008 221.2 23.0008 223.7 20.3008C226.2 17.7008 229.5 16.3008 233.5 16.3008C237.6 16.3008 240.9 17.6008 243.4 20.3008C246 22.9008 247.2 26.3008 247.2 30.3008V36.2008H247.3ZM240.7 30.2008C240.7 27.6008 240.1 25.6008 238.8 23.9008C237.5 22.3008 235.8 21.4008 233.5 21.4008C231.3 21.4008 229.5 22.2008 228.3 23.9008C227.1 25.5008 226.4 27.6008 226.4 30.2008V36.1008C226.4 38.7008 227 40.8008 228.3 42.5008C229.5 44.1008 231.3 45.0008 233.5 45.0008C235.8 45.0008 237.5 44.2008 238.8 42.5008C240.1 40.9008 240.7 38.7008 240.7 36.1008V30.2008ZM264.3 49.6008H257.7V16.8008H264.3V49.6008ZM302.2 49.6008H295.6L282.4 27.5008H282.3V49.6008H275.7V16.8008H282.3L295.5 38.9008H295.6V16.8008H302.2V49.6008ZM335.3 21.9008H325.9V49.6008H319.3V21.9008H310.1V16.8008H335.3V21.9008ZM362.5 35.2008H350.3V44.6008H364.8V49.6008H343.8V16.8008H364.8V21.9008H350.4V30.1008H362.6V35.2008H362.5ZM380.8 44.6008H395.5V49.6008H374.2V16.8008H380.8V44.6008ZM423.5 35.2008H411.3V44.6008H425.8V49.6008H404.8V16.8008H425.8V21.9008H411.4V30.1008H423.6V35.2008H423.5ZM460.4 45.2008C459.4 46.5008 457.9 47.7008 455.8 48.7008C453.8 49.7008 451.2 50.2008 448 50.2008C444 50.2008 440.8 49.0008 438.3 46.5008C435.8 44.0008 434.5 40.8008 434.5 36.8008V29.9008C434.5 25.9008 435.7 22.7008 438.2 20.2008C440.6 17.7008 443.8 16.4008 447.6 16.4008C451.6 16.4008 454.7 17.4008 456.8 19.3008C458.9 21.2008 460 23.7008 459.9 26.9008V27.0008H453.7C453.7 25.3008 453.2 23.9008 452.2 22.9008C451.2 21.9008 449.7 21.4008 447.8 21.4008C445.8 21.4008 444.2 22.2008 442.9 23.7008C441.7 25.3008 441.1 27.3008 441.1 29.7008V36.6008C441.1 39.1008 441.7 41.1008 443 42.7008C444.3 44.3008 446 45.0008 448.1 45.0008C449.7 45.0008 450.9 44.8008 451.8 44.5008C452.7 44.2008 453.4 43.8008 453.9 43.3008V36.9008H447.6V32.3008H460.5V45.2008H460.4ZM477.4 36.5008V49.6008H470.8V16.8008H482.2C485.9 16.8008 488.9 17.7008 491 19.4008C493.1 21.1008 494.2 23.5008 494.2 26.5008C494.2 28.2008 493.8 29.6008 492.9 30.9008C492 32.1008 490.7 33.1008 489 33.9008C490.9 34.5008 492.3 35.4008 493.2 36.8008C494 38.1008 494.5 39.8008 494.5 41.8008V44.2008C494.5 45.1008 494.6 46.1008 494.9 47.1008C495.1 48.1008 495.6 48.8008 496.2 49.3008V49.8008H489.4C488.8 49.3008 488.4 48.5008 488.2 47.4008C488 46.3008 487.9 45.2008 487.9 44.2008V41.9008C487.9 40.3008 487.5 39.0008 486.6 38.1008C485.7 37.2008 484.4 36.7008 482.8 36.7008H477.4V36.5008ZM477.4 31.5008H482.1C483.9 31.5008 485.3 31.1008 486.2 30.3008C487.1 29.5008 487.6 28.4008 487.6 26.8008C487.6 25.3008 487.1 24.1008 486.2 23.2008C485.3 22.3008 484 21.9008 482.2 21.9008H477.4V31.5008ZM522.1 42.6008H511.5L509.3 49.7008H502.4L513.5 16.9008H520.2L531.2 49.7008H524.3L522.1 42.6008ZM513.1 37.4008H520.5L516.9 25.8008H516.8L513.1 37.4008ZM545.8 37.7008V49.6008H539.2V16.8008H551.8C555.6 16.8008 558.5 17.8008 560.7 19.7008C562.9 21.6008 563.9 24.2008 563.9 27.3008C563.9 30.4008 562.8 33.0008 560.7 34.9008C558.5 36.8008 555.6 37.8008 551.8 37.8008H545.8V37.7008ZM545.8 32.7008H551.8C553.6 32.7008 555 32.2008 556 31.2008C556.9 30.2008 557.4 28.9008 557.4 27.4008C557.4 25.8008 556.9 24.5008 556 23.5008C555.1 22.5008 553.7 22.0008 551.8 22.0008H545.8V32.7008ZM600 49.6008H593.4V36.0008H580V49.6008H573.4V16.8008H580V30.9008H593.4V16.8008H600V49.6008Z" fill="white"/>
<path d="M197.7 103.201H193.6V81.6008H186.2V78.1008H205.1V81.6008H197.7V103.201ZM225.2 103.201H221.1V91.5008C221.1 90.0008 220.8 88.9008 220.2 88.2008C219.6 87.5008 218.7 87.1008 217.4 87.1008C215.7 87.1008 214.5 87.6008 213.7 88.6008C212.9 89.6008 212.5 91.3008 212.5 93.7008V103.101H208.5V76.4008H212.5V83.2008C212.5 84.3008 212.4 85.4008 212.3 86.7008H212.6C213.1 85.8008 213.9 85.1008 214.9 84.6008C215.9 84.1008 217 83.8008 218.3 83.8008C222.9 83.8008 225.2 86.1008 225.2 90.8008V103.201ZM239.1 103.501C236.1 103.501 233.8 102.601 232.2 100.901C230.5 99.2008 229.7 96.8008 229.7 93.8008C229.7 90.7008 230.5 88.3008 232 86.5008C233.5 84.7008 235.7 83.8008 238.4 83.8008C240.9 83.8008 242.9 84.6008 244.3 86.1008C245.8 87.6008 246.5 89.7008 246.5 92.4008V94.6008H233.8C233.9 96.4008 234.4 97.9008 235.3 98.8008C236.2 99.8008 237.6 100.301 239.3 100.301C240.4 100.301 241.5 100.201 242.4 100.001C243.4 99.8008 244.4 99.4008 245.5 98.9008V102.201C244.5 102.701 243.5 103.001 242.5 103.201C241.6 103.401 240.4 103.501 239.1 103.501ZM238.4 86.9008C237.1 86.9008 236.1 87.3008 235.3 88.1008C234.5 88.9008 234.1 90.1008 233.9 91.7008H242.5C242.5 90.1008 242.1 88.9008 241.4 88.1008C240.7 87.3008 239.7 86.9008 238.4 86.9008ZM269.7 87.2008H265.1V103.201H261V87.2008H257.9V85.3008L261 84.1008V82.9008C261 80.7008 261.5 79.0008 262.6 77.9008C263.7 76.8008 265.3 76.3008 267.4 76.3008C268.8 76.3008 270.2 76.5008 271.6 77.0008L270.5 80.1008C269.5 79.8008 268.6 79.6008 267.6 79.6008C266.7 79.6008 266 79.9008 265.6 80.4008C265.2 81.0008 265 81.8008 265 82.9008V84.1008H269.6V87.2008H269.7ZM286.4 103.201L285.8 100.701H285.6C285 101.601 284.2 102.301 283.2 102.801C282.2 103.301 281 103.601 279.7 103.601C277.4 103.601 275.7 103.001 274.5 101.901C273.3 100.801 272.8 99.0008 272.8 96.7008V84.2008H276.9V95.9008C276.9 97.4008 277.2 98.4008 277.8 99.2008C278.4 99.9008 279.3 100.301 280.6 100.301C282.3 100.301 283.5 99.8008 284.3 98.8008C285.1 97.8008 285.5 96.1008 285.5 93.7008V84.2008H289.6V103.201H286.4ZM302.4 100.201C303.4 100.201 304.4 100.001 305.4 99.7008V102.701C305 102.901 304.4 103.101 303.7 103.201C303 103.301 302.3 103.401 301.5 103.401C297.7 103.401 295.8 101.401 295.8 97.4008V87.2008H293.2V85.4008L296 83.9008L297.4 79.9008H299.9V84.1008H305.3V87.2008H299.9V97.4008C299.9 98.4008 300.1 99.1008 300.6 99.6008C300.9 100.001 301.6 100.201 302.4 100.201ZM322.5 103.201L321.9 100.701H321.7C321.1 101.601 320.3 102.301 319.3 102.801C318.3 103.301 317.1 103.601 315.8 103.601C313.5 103.601 311.8 103.001 310.6 101.901C309.5 100.801 308.9 99.0008 308.9 96.7008V84.2008H313V95.9008C313 97.4008 313.3 98.4008 313.9 99.2008C314.5 99.9008 315.4 100.301 316.7 100.301C318.4 100.301 319.6 99.8008 320.4 98.8008C321.2 97.8008 321.6 96.1008 321.6 93.7008V84.2008H325.7V103.201H322.5ZM341.1 83.8008C341.9 83.8008 342.6 83.9008 343.1 84.0008L342.7 87.8008C342.1 87.7008 341.5 87.6008 340.9 87.6008C339.3 87.6008 338 88.1008 337 89.2008C336 90.3008 335.5 91.6008 335.5 93.3008V103.201H331.5V84.2008H334.7L335.2 87.5008H335.4C336 86.4008 336.9 85.5008 337.9 84.8008C338.8 84.2008 339.9 83.8008 341.1 83.8008ZM354.2 103.501C351.2 103.501 348.9 102.601 347.3 100.901C345.6 99.2008 344.8 96.8008 344.8 93.8008C344.8 90.7008 345.6 88.3008 347.1 86.5008C348.6 84.7008 350.8 83.8008 353.5 83.8008C356 83.8008 358 84.6008 359.4 86.1008C360.9 87.6008 361.6 89.7008 361.6 92.4008V94.6008H348.9C349 96.4008 349.5 97.9008 350.4 98.8008C351.3 99.8008 352.7 100.301 354.4 100.301C355.5 100.301 356.6 100.201 357.5 100.001C358.5 99.8008 359.5 99.4008 360.6 98.9008V102.201C359.6 102.701 358.6 103.001 357.6 103.201C356.6 103.401 355.5 103.501 354.2 103.501ZM353.5 86.9008C352.2 86.9008 351.2 87.3008 350.4 88.1008C349.6 88.9008 349.2 90.1008 349 91.7008H357.6C357.6 90.1008 357.2 88.9008 356.5 88.1008C355.7 87.3008 354.7 86.9008 353.5 86.9008ZM392.1 93.6008C392.1 96.7008 391.3 99.1008 389.7 100.901C388.1 102.601 385.9 103.501 383.1 103.501C381.3 103.501 379.8 103.101 378.4 102.301C377 101.501 376 100.301 375.3 98.8008C374.6 97.3008 374.2 95.6008 374.2 93.6008C374.2 90.5008 375 88.1008 376.6 86.4008C378.2 84.7008 380.4 83.8008 383.3 83.8008C386 83.8008 388.2 84.7008 389.8 86.5008C391.4 88.3008 392.1 90.6008 392.1 93.6008ZM378.3 93.6008C378.3 98.0008 379.9 100.201 383.2 100.201C386.4 100.201 388 98.0008 388 93.6008C388 89.3008 386.4 87.1008 383.2 87.1008C381.5 87.1008 380.3 87.7008 379.5 88.8008C378.7 89.9008 378.3 91.5008 378.3 93.6008ZM406.3 87.2008H401.7V103.201H397.6V87.2008H394.5V85.3008L397.6 84.1008V82.9008C397.6 80.7008 398.1 79.0008 399.2 77.9008C400.3 76.8008 401.9 76.3008 404 76.3008C405.4 76.3008 406.8 76.5008 408.2 77.0008L407.1 80.1008C406.1 79.8008 405.2 79.6008 404.2 79.6008C403.3 79.6008 402.6 79.9008 402.2 80.4008C401.8 80.9008 401.6 81.8008 401.6 82.9008V84.1008H406.2V87.2008H406.3ZM434.7 103.201H430.6V91.5008C430.6 90.0008 430.3 89.0008 429.8 88.2008C429.3 87.5008 428.4 87.1008 427.2 87.1008C425.6 87.1008 424.5 87.6008 423.8 88.6008C423.1 89.6008 422.7 91.3008 422.7 93.7008V103.201H418.7V84.2008H421.9L422.5 86.7008H422.7C423.2 85.8008 424 85.1008 425 84.6008C426 84.1008 427.1 83.9008 428.3 83.9008C431.2 83.9008 433.2 84.9008 434.1 86.9008H434.4C435 86.0008 435.8 85.2008 436.8 84.7008C437.8 84.2008 439 83.9008 440.3 83.9008C442.6 83.9008 444.2 84.5008 445.3 85.6008C446.3 86.7008 446.9 88.5008 446.9 90.8008V103.201H442.9V91.5008C442.9 90.0008 442.6 89.0008 442.1 88.2008C441.5 87.5008 440.7 87.1008 439.5 87.1008C437.9 87.1008 436.8 87.6008 436.1 88.6008C435.4 89.6008 435 91.1008 435 93.1008V103.201H434.7ZM469.1 93.6008C469.1 96.7008 468.3 99.1008 466.7 100.901C465.1 102.601 462.9 103.501 460.1 103.501C458.3 103.501 456.8 103.101 455.4 102.301C454 101.501 453 100.301 452.3 98.8008C451.6 97.3008 451.2 95.6008 451.2 93.6008C451.2 90.5008 452 88.1008 453.6 86.4008C455.2 84.7008 457.4 83.8008 460.3 83.8008C463 83.8008 465.2 84.7008 466.8 86.5008C468.3 88.3008 469.1 90.6008 469.1 93.6008ZM455.3 93.6008C455.3 98.0008 456.9 100.201 460.2 100.201C463.4 100.201 465 98.0008 465 93.6008C465 89.3008 463.4 87.1008 460.2 87.1008C458.5 87.1008 457.3 87.7008 456.5 88.8008C455.7 89.9008 455.3 91.5008 455.3 93.6008ZM490.5 103.201H486.4V91.5008C486.4 90.0008 486.1 88.9008 485.5 88.2008C484.9 87.5008 484 87.1008 482.7 87.1008C481 87.1008 479.7 87.6008 479 88.6008C478.3 89.6008 477.8 91.3008 477.8 93.7008V103.201H473.8V84.2008H477L477.6 86.7008H477.8C478.4 85.8008 479.2 85.1008 480.2 84.6008C481.2 84.1008 482.4 83.9008 483.7 83.9008C488.3 83.9008 490.5 86.2008 490.5 90.9008V103.201ZM504.4 103.501C501.4 103.501 499.1 102.601 497.5 100.901C495.8 99.2008 495 96.8008 495 93.8008C495 90.7008 495.8 88.3008 497.3 86.5008C498.8 84.7008 501 83.8008 503.7 83.8008C506.2 83.8008 508.2 84.6008 509.6 86.1008C511.1 87.6008 511.8 89.7008 511.8 92.4008V94.6008H499.1C499.2 96.4008 499.7 97.9008 500.6 98.8008C501.5 99.8008 502.9 100.301 504.6 100.301C505.7 100.301 506.8 100.201 507.7 100.001C508.6 99.8008 509.7 99.4008 510.8 98.9008V102.201C509.8 102.701 508.8 103.001 507.8 103.201C506.8 103.401 505.7 103.501 504.4 103.501ZM503.6 86.9008C502.3 86.9008 501.3 87.3008 500.5 88.1008C499.7 88.9008 499.3 90.1008 499.1 91.7008H507.7C507.7 90.1008 507.3 88.9008 506.6 88.1008C505.9 87.3008 504.9 86.9008 503.6 86.9008ZM512.8 84.2008H517.2L521.1 95.0008C521.7 96.5008 522.1 98.0008 522.3 99.3008H522.4C522.5 98.7008 522.7 97.9008 523 97.0008C523.3 96.1008 524.7 91.8008 527.4 84.2008H531.8L523.7 105.701C522.2 109.601 519.8 111.601 516.3 111.601C515.4 111.601 514.5 111.501 513.7 111.301V108.101C514.3 108.201 515 108.301 515.8 108.301C517.7 108.301 519.1 107.201 519.9 104.901L520.6 103.101L512.8 84.2008Z" fill="white"/>
</svg>

<svg fill="none" viewBox="0 0 600 141" xmlns="http://www.w3.org/2000/svg"><path d="M87.1 102.201l-25 10.9v-1.1c-4.8 1.2-10.2 1.9-15.2 2.2-23.6-.2-42.2-12.6-42.5-27.2v-5.4c7.7 11.2 23.5 18.8 42.5 18.5 6.4.3 13-.7 18.5-2.2l2.2-5.4c-6.5 2-13.7 3.3-20.7 3.3-23.6 0-42.2-12.3-42.5-27.2v-4.4c7.7 10.4 23.5 17.9 42.5 17.4 8.6.5 16.9-1.3 24-4.4l1.1-5.4c-6.9 3.6-15.8 5.7-25 5.4-23.6.3-42.2-12-42.5-27.2v-4.4C12.2 56.2 28 63.8 47 64.1c10.8-.3 21-3.2 29.4-7.6l1.1-6.5c-7.6 5.6-18.7 9.3-30.5 9.8-23.6-.5-42.2-12.9-42.5-28.3.2-14.7 18.9-27 42.5-27.2 14 .2 27.1 5.1 34.8 13.1l.8 1.3h5.5l-.8-1.3C79.6 6.9 64.1 0 47 0 20.8-.1 0 14.2 0 31.4V88c.9 16.8 21.2 30.5 46.8 30.5 16.9.1 32.2-6.6 40.3-16.3z" fill="#fff"/><path d="M76.9 140.5l8.8-37.4-25.3 11 15.4-64.8H46.2l7.7-31.9h94.5l-7.7 31.9h-30.8l-6.6 17.6 34.1-14.3zm15.4-45l-4.4 22 36.3-54.9-29.7 13.2L107.7 45h29.7l5.5-23.1H57.1L51.6 45h29.7L67 106.5z" fill="#fabf2c"/><path d="M211.1 38.8v.1c.1 3.5-1 6.2-3.2 8.2s-5.2 3-9.1 3-7.1-1.3-9.5-3.8-3.6-5.8-3.6-9.8V30c0-4 1.2-7.3 3.5-9.8 2.4-2.5 5.5-3.8 9.3-3.8 4 0 7.1 1 9.4 2.9 2.3 2 3.4 4.7 3.3 8.2v.1h-6.4c0-2.1-.5-3.7-1.5-4.7s-2.6-1.5-4.7-1.5c-2 0-3.5.8-4.6 2.4s-1.7 3.6-1.7 6.1v6.6c0 2.5.6 4.6 1.7 6.2 1.2 1.6 2.8 2.4 4.9 2.4 2 0 3.4-.5 4.4-1.5s1.5-2.6 1.5-4.7h6.3zm36.2-2.6c0 4-1.3 7.4-3.8 10s-5.8 3.9-9.9 3.9-7.3-1.3-9.9-3.9c-2.5-2.6-3.8-6-3.8-10v-5.9c0-4 1.3-7.3 3.8-10 2.5-2.6 5.8-4 9.8-4 4.1 0 7.4 1.3 9.9 4 2.6 2.6 3.8 6 3.8 10v5.9zm-6.6-6c0-2.6-.6-4.6-1.9-6.3-1.3-1.6-3-2.5-5.3-2.5-2.2 0-4 .8-5.2 2.5-1.2 1.6-1.9 3.7-1.9 6.3v5.9c0 2.6.6 4.7 1.9 6.4 1.2 1.6 3 2.5 5.2 2.5 2.3 0 4-.8 5.3-2.5 1.3-1.6 1.9-3.8 1.9-6.4zm23.6 19.4h-6.6V16.8h6.6zm37.9 0h-6.6l-13.2-22.1h-.1v22.1h-6.6V16.8h6.6l13.2 22.1h.1V16.8h6.6zm33.1-27.7h-9.4v27.7h-6.6V21.9h-9.2v-5.1h25.2zm27.2 13.3h-12.2v9.4h14.5v5h-21V16.8h21v5.1h-14.4v8.2h12.2v5.1zm18.3 9.4h14.7v5h-21.3V16.8h6.6zm42.7-9.4h-12.2v9.4h14.5v5h-21V16.8h21v5.1h-14.4v8.2h12.2v5.1zm36.9 10c-1 1.3-2.5 2.5-4.6 3.5-2 1-4.6 1.5-7.8 1.5-4 0-7.2-1.2-9.7-3.7s-3.8-5.7-3.8-9.7v-6.9c0-4 1.2-7.2 3.7-9.7 2.4-2.5 5.6-3.8 9.4-3.8 4 0 7.1 1 9.2 2.9s3.2 4.4 3.1 7.6v.1h-6.2c0-1.7-.5-3.1-1.5-4.1s-2.5-1.5-4.4-1.5c-2 0-3.6.8-4.9 2.3-1.2 1.6-1.8 3.6-1.8 6v6.9c0 2.5.6 4.5 1.9 6.1s3 2.3 5.1 2.3c1.6 0 2.8-.2 3.7-.5s1.6-.7 2.1-1.2v-6.4h-6.3v-4.6h12.9v12.9zm17-8.7v13.1h-6.6V16.8h11.4c3.7 0 6.7.9 8.8 2.6s3.2 4.1 3.2 7.1c0 1.7-.4 3.1-1.3 4.4-.9 1.2-2.2 2.2-3.9 3 1.9.6 3.3 1.5 4.2 2.9.8 1.3 1.3 3 1.3 5v2.4c0 .9.1 1.9.4 2.9.2 1 .7 1.7 1.3 2.2v.5h-6.8c-.6-.5-1-1.3-1.2-2.4s-.3-2.2-.3-3.2v-2.3c0-1.6-.4-2.9-1.3-3.8s-2.2-1.4-3.8-1.4h-5.4zm0-5h4.7c1.8 0 3.2-.4 4.1-1.2s1.4-1.9 1.4-3.5c0-1.5-.5-2.7-1.4-3.6s-2.2-1.3-4-1.3h-4.8zm44.7 11.1h-10.6l-2.2 7.1h-6.9l11.1-32.8h6.7l11 32.8h-6.9zm-9-5.2h7.4l-3.6-11.6h-.1zm32.7.3v11.9h-6.6V16.8h12.6c3.8 0 6.7 1 8.9 2.9s3.2 4.5 3.2 7.6-1.1 5.7-3.2 7.6c-2.2 1.9-5.1 2.9-8.9 2.9h-6zm0-5h6c1.8 0 3.2-.5 4.2-1.5.9-1 1.4-2.3 1.4-3.8 0-1.6-.5-2.9-1.4-3.9s-2.3-1.5-4.2-1.5h-6zM600 49.6h-6.6V36H580v13.6h-6.6V16.8h6.6v14.1h13.4V16.8h6.6zm-402.3 53.601h-4.1v-21.6h-7.4v-3.5h18.9v3.5h-7.4zm27.5 0h-4.1v-11.7c0-1.5-.3-2.6-.9-3.3s-1.5-1.1-2.8-1.1c-1.7 0-2.9.5-3.7 1.5s-1.2 2.7-1.2 5.1v9.4h-4v-26.7h4v6.8c0 1.1-.1 2.2-.2 3.5h.3c.5-.9 1.3-1.6 2.3-2.1s2.1-.8 3.4-.8c4.6 0 6.9 2.3 6.9 7zm13.9.3c-3 0-5.3-.9-6.9-2.6-1.7-1.7-2.5-4.1-2.5-7.1 0-3.1.8-5.5 2.3-7.3s3.7-2.7 6.4-2.7c2.5 0 4.5.8 5.9 2.3 1.5 1.5 2.2 3.6 2.2 6.3v2.2h-12.7c.1 1.8.6 3.3 1.5 4.2.9 1 2.3 1.5 4 1.5 1.1 0 2.2-.1 3.1-.3 1-.2 2-.6 3.1-1.1v3.3c-1 .5-2 .8-3 1-.9.2-2.1.3-3.4.3zm-.7-16.6c-1.3 0-2.3.4-3.1 1.2s-1.2 2-1.4 3.6h8.6c0-1.6-.4-2.8-1.1-3.6s-1.7-1.2-3-1.2zm31.3.3h-4.6v16H261v-16h-3.1v-1.9l3.1-1.2v-1.2c0-2.2.5-3.9 1.6-5s2.7-1.6 4.8-1.6c1.4 0 2.8.2 4.2.7l-1.1 3.1c-1-.3-1.9-.5-2.9-.5-.9 0-1.6.3-2 .8-.4.6-.6 1.4-.6 2.5v1.2h4.6v3.1zm16.7 16l-.6-2.5h-.2c-.6.9-1.4 1.6-2.4 2.1s-2.2.8-3.5.8c-2.3 0-4-.6-5.2-1.7s-1.7-2.9-1.7-5.2V84.2h4.1v11.7c0 1.5.3 2.5.9 3.3.6.7 1.5 1.1 2.8 1.1 1.7 0 2.9-.5 3.7-1.5s1.2-2.7 1.2-5.1v-9.5h4.1v19h-3.2zm16-3c1 0 2-.2 3-.5v3c-.4.2-1 .4-1.7.5s-1.4.2-2.2.2c-3.8 0-5.7-2-5.7-6V87.2h-2.6v-1.8l2.8-1.5 1.4-4h2.5v4.2h5.4v3.1h-5.4v10.2c0 1 .2 1.7.7 2.2.3.4 1 .6 1.8.6zm20.1 3l-.6-2.5h-.2c-.6.9-1.4 1.6-2.4 2.1s-2.2.8-3.5.8c-2.3 0-4-.6-5.2-1.7-1.1-1.1-1.7-2.9-1.7-5.2V84.2h4.1v11.7c0 1.5.3 2.5.9 3.3.6.7 1.5 1.1 2.8 1.1 1.7 0 2.9-.5 3.7-1.5s1.2-2.7 1.2-5.1v-9.5h4.1v19h-3.2zm18.6-19.4c.8 0 1.5.1 2 .2l-.4 3.8c-.6-.1-1.2-.2-1.8-.2-1.6 0-2.9.5-3.9 1.6s-1.5 2.4-1.5 4.1v9.9h-4v-19h3.2l.5 3.3h.2c.6-1.1 1.5-2 2.5-2.7.9-.6 2-1 3.2-1zm13.1 19.7c-3 0-5.3-.9-6.9-2.6-1.7-1.7-2.5-4.1-2.5-7.1 0-3.1.8-5.5 2.3-7.3s3.7-2.7 6.4-2.7c2.5 0 4.5.8 5.9 2.3 1.5 1.5 2.2 3.6 2.2 6.3v2.2h-12.7c.1 1.8.6 3.3 1.5 4.2.9 1 2.3 1.5 4 1.5 1.1 0 2.2-.1 3.1-.3 1-.2 2-.6 3.1-1.1v3.3c-1 .5-2 .8-3 1s-2.1.3-3.4.3zm-.7-16.6c-1.3 0-2.3.4-3.1 1.2s-1.2 2-1.4 3.6h8.6c0-1.6-.4-2.8-1.1-3.6-.8-.8-1.8-1.2-3-1.2zm38.6 6.7c0 3.1-.8 5.5-2.4 7.3-1.6 1.7-3.8 2.6-6.6 2.6-1.8 0-3.3-.4-4.7-1.2s-2.4-2-3.1-3.5-1.1-3.2-1.1-5.2c0-3.1.8-5.5 2.4-7.2s3.8-2.6 6.7-2.6c2.7 0 4.9.9 6.5 2.7s2.3 4.1 2.3 7.1zm-13.8 0c0 4.4 1.6 6.6 4.9 6.6 3.2 0 4.8-2.2 4.8-6.6 0-4.3-1.6-6.5-4.8-6.5-1.7 0-2.9.6-3.7 1.7s-1.2 2.7-1.2 4.8zm28-6.4h-4.6v16h-4.1v-16h-3.1v-1.9l3.1-1.2v-1.2c0-2.2.5-3.9 1.6-5s2.7-1.6 4.8-1.6c1.4 0 2.8.2 4.2.7l-1.1 3.1c-1-.3-1.9-.5-2.9-.5-.9 0-1.6.3-2 .8s-.6 1.4-.6 2.5v1.2h4.6v3.1zm28.4 16h-4.1v-11.7c0-1.5-.3-2.5-.8-3.3-.5-.7-1.4-1.1-2.6-1.1-1.6 0-2.7.5-3.4 1.5s-1.1 2.7-1.1 5.1v9.5h-4v-19h3.2l.6 2.5h.2c.5-.9 1.3-1.6 2.3-2.1s2.1-.7 3.3-.7c2.9 0 4.9 1 5.8 3h.3c.6-.9 1.4-1.7 2.4-2.2s2.2-.8 3.5-.8c2.3 0 3.9.6 5 1.7 1 1.1 1.6 2.9 1.6 5.2v12.4h-4v-11.7c0-1.5-.3-2.5-.8-3.3-.6-.7-1.4-1.1-2.6-1.1-1.6 0-2.7.5-3.4 1.5s-1.1 2.5-1.1 4.5v10.1zm34.4-9.6c0 3.1-.8 5.5-2.4 7.3-1.6 1.7-3.8 2.6-6.6 2.6-1.8 0-3.3-.4-4.7-1.2s-2.4-2-3.1-3.5-1.1-3.2-1.1-5.2c0-3.1.8-5.5 2.4-7.2s3.8-2.6 6.7-2.6c2.7 0 4.9.9 6.5 2.7 1.5 1.8 2.3 4.1 2.3 7.1zm-13.8 0c0 4.4 1.6 6.6 4.9 6.6 3.2 0 4.8-2.2 4.8-6.6 0-4.3-1.6-6.5-4.8-6.5-1.7 0-2.9.6-3.7 1.7s-1.2 2.7-1.2 4.8zm35.2 9.6h-4.1v-11.7c0-1.5-.3-2.6-.9-3.3s-1.5-1.1-2.8-1.1c-1.7 0-3 .5-3.7 1.5s-1.2 2.7-1.2 5.1v9.5h-4v-19h3.2l.6 2.5h.2c.6-.9 1.4-1.6 2.4-2.1s2.2-.7 3.5-.7c4.6 0 6.8 2.3 6.8 7zm13.9.3c-3 0-5.3-.9-6.9-2.6-1.7-1.7-2.5-4.1-2.5-7.1 0-3.1.8-5.5 2.3-7.3s3.7-2.7 6.4-2.7c2.5 0 4.5.8 5.9 2.3 1.5 1.5 2.2 3.6 2.2 6.3v2.2h-12.7c.1 1.8.6 3.3 1.5 4.2.9 1 2.3 1.5 4 1.5 1.1 0 2.2-.1 3.1-.3s2-.6 3.1-1.1v3.3c-1 .5-2 .8-3 1s-2.1.3-3.4.3zm-.8-16.6c-1.3 0-2.3.4-3.1 1.2s-1.2 2-1.4 3.6h8.6c0-1.6-.4-2.8-1.1-3.6s-1.7-1.2-3-1.2zm9.2-2.7h4.4l3.9 10.8c.6 1.5 1 3 1.2 4.3h.1c.1-.6.3-1.4.6-2.3s1.7-5.2 4.4-12.8h4.4l-8.1 21.5c-1.5 3.9-3.9 5.9-7.4 5.9-.9 0-1.8-.1-2.6-.3v-3.2c.6.1 1.3.2 2.1.2 1.9 0 3.3-1.1 4.1-3.4l.7-1.8z" fill="#fff"/></svg>
